build/img/logotypes/header-logo-blue.svg

<svg xmlns="http://www.w3.org/2000/svg" width="163" height="160" viewBox="0 0 163 160" fill="none"> <path d="M89.7549 142.966V160H127.042V76.7264L63.5225 14.1882L0.00292969 76.7264V160H72.2698V158.711V142.966V98.1617H54.7755V142.966H17.2182V83.807L63.5225 38.2108L109.827 83.807V142.966H89.7549Z" fill="#3B04D9"/> <path d="M73.5 81.0071C73.5 86.4581 69.0333 90.8779 63.5245 90.8779C58.0157 90.8779 53.5488 86.4581 53.5488 81.0071C53.5488 75.5564 58.0157 71.1366 63.5245 71.1366C69.0333 71.1366 73.5 75.5564 73.5 81.0071Z" fill="#3B04D9"/> <path d="M151.649 14.1341C151.649 15.1991 151.407 16.0475 150.923 16.6793C150.457 17.3111 149.936 17.8075 149.359 18.1685C148.67 18.5837 147.906 18.8996 147.068 19.1162L152.207 26.6164H149.359L144.499 19.3869H141.343V26.6164H139.053V8.85409H145.644C147.506 8.85409 148.968 9.3866 150.029 10.4516C151.109 11.4986 151.649 12.7261 151.649 14.1341ZM141.343 11.0744V17.1666H145.644C146.631 17.1666 147.45 16.8778 148.102 16.3002C148.754 15.7045 149.079 14.9825 149.079 14.1341C149.079 13.2857 148.754 12.5636 148.102 11.9679C147.45 11.3722 146.631 11.0744 145.644 11.0744H141.343ZM129.612 17.7353C129.612 19.9556 130.004 22.0044 130.786 23.8817C131.568 25.7409 132.638 27.3475 133.997 28.7013C135.357 30.0371 136.958 31.0841 138.801 31.8422C140.645 32.6004 142.637 32.9795 144.778 32.9795C146.919 32.9795 148.912 32.6004 150.755 31.8422C152.599 31.0841 154.2 30.0371 155.559 28.7013C156.918 27.3475 157.989 25.7409 158.771 23.8817C159.553 22.0044 159.944 19.9556 159.944 17.7353C159.944 15.515 159.553 13.4752 158.771 11.6159C157.989 9.7386 156.918 8.13205 155.559 6.79626C154.2 5.44242 152.599 4.38643 150.755 3.62828C148.912 2.87013 146.919 2.49106 144.778 2.49106C142.637 2.49106 140.645 2.87013 138.801 3.62828C136.958 4.38643 135.357 5.44242 133.997 6.79626C132.638 8.13205 131.568 9.7386 130.786 11.6159C130.004 13.4752 129.612 15.515 129.612 17.7353ZM162.513 17.7353C162.513 20.2444 162.048 22.573 161.117 24.7211C160.186 26.8691 158.92 28.7465 157.319 30.353C155.717 31.9596 153.837 33.2141 151.677 34.1167C149.517 35.0192 147.217 35.4705 144.778 35.4705C142.339 35.4705 140.04 35.0192 137.88 34.1167C135.738 33.2141 133.867 31.9596 132.266 30.353C130.664 28.7465 129.389 26.8691 128.439 24.7211C127.508 22.573 127.043 20.2444 127.043 17.7353C127.043 15.2623 127.508 12.9427 128.439 10.7765C129.389 8.6104 130.664 6.72406 132.266 5.1175C133.867 3.51095 135.738 2.25639 137.88 1.35384C140.04 0.451279 142.339 0 144.778 0C147.217 0 149.517 0.451279 151.677 1.35384C153.837 2.25639 155.717 3.51095 157.319 5.1175C158.92 6.72406 160.186 8.6104 161.117 10.7765C162.048 12.9427 162.513 15.2623 162.513 17.7353Z" fill="#3B04D9"/> </svg>

<svg xmlns="http://www.w3.org/2000/svg" width="163" height="160" fill="none"><path d="M89.755 142.966V160h37.287V76.726l-63.52-62.538L.002 76.726V160H72.27V98.162H54.776v44.804H17.218V83.807l46.305-45.596 46.304 45.596v59.159H89.755z" fill="#3B04D9"/><path d="M73.5 81.007c0 5.451-4.467 9.87-9.975 9.87-5.51 0-9.976-4.419-9.976-9.87 0-5.45 4.467-9.87 9.976-9.87 5.508 0 9.975 4.42 9.975 9.87zm78.149-66.873c0 1.065-.242 1.913-.726 2.545-.466.632-.987 1.129-1.564 1.49a8.563 8.563 0 01-2.291.947l5.139 7.5h-2.848l-4.86-7.23h-3.156v7.23h-2.29V8.854h6.591c1.862 0 3.324.533 4.385 1.598 1.08 1.047 1.62 2.274 1.62 3.682zm-10.306-3.06v6.093h4.301c.987 0 1.806-.29 2.458-.867.652-.596.977-1.318.977-2.166 0-.848-.325-1.57-.977-2.166-.652-.596-1.471-.894-2.458-.894h-4.301zm-11.731 6.661c0 2.22.392 4.27 1.174 6.147.782 1.859 1.852 3.465 3.211 4.82 1.36 1.335 2.961 2.382 4.804 3.14 1.844.758 3.836 1.138 5.977 1.138 2.141 0 4.134-.38 5.977-1.138 1.844-.758 3.445-1.805 4.804-3.14 1.359-1.355 2.43-2.961 3.212-4.82.782-1.878 1.173-3.926 1.173-6.147 0-2.22-.391-4.26-1.173-6.12-.782-1.876-1.853-3.483-3.212-4.819-1.359-1.354-2.96-2.41-4.804-3.168-1.843-.758-3.836-1.137-5.977-1.137-2.141 0-4.133.38-5.977 1.137-1.843.758-3.444 1.814-4.804 3.168-1.359 1.336-2.429 2.943-3.211 4.82-.782 1.86-1.174 3.899-1.174 6.12zm32.901 0c0 2.51-.465 4.838-1.396 6.986-.931 2.148-2.197 4.026-3.798 5.632-1.602 1.607-3.482 2.861-5.642 3.764-2.16.902-4.46 1.354-6.899 1.354s-4.738-.452-6.898-1.354a17.352 17.352 0 01-5.614-3.764c-1.602-1.607-2.877-3.484-3.827-5.632-.931-2.148-1.396-4.477-1.396-6.986 0-2.473.465-4.792 1.396-6.958.95-2.167 2.225-4.053 3.827-5.66a17.352 17.352 0 015.614-3.763C140.04.45 142.339 0 144.778 0s4.739.451 6.899 1.354c2.16.902 4.04 2.157 5.642 3.763 1.601 1.607 2.867 3.493 3.798 5.66.931 2.166 1.396 4.485 1.396 6.958z" fill="#3B04D9"/></svg>
